X: 4
T: Carolan's Welcome
R: waltz
M: 3/4
L: 1/8
K: Gmaj
|: BA | G2 Bc d2 | G2 Bc d2 | cd cB AG | F/G/A F2 D2 |
B3A G2 | c3B A2 | Bd D2 F2 | G4 BA |
G2 Bc d2 | G2 Bc d2 | cd cB AG | F/G/A F2 D2 |
f3e d2 | g3f dc | Bd cB AB | G4 ||
|: dc | d2 ga b2 | d2 ga b2 | ba gf ga | b2 d2 d2 |
e2 ge dc | d2 fd cB | c2 d2 f2 | g4 g2 |
gf df g2 | fd cd f2 | dc Bc dB | c2 A2 F2 |
B3A G2 | c3B A2 | Bd D2 F2 | G4 ||


Tune 1055	Setting 29881

